!!!!SEGMENT: pl-cz--ii-184--001-002_neumann-wawrzyniec--vesperae-de-apostolis-in-c-laudate-pueri.krn
!!!cenid: 17xx:1000
!!!COM: Neumann, Wawrzyniec
!!!COM-rismID: pe30107352
!!!CDT: ~1700-~1799
!!!CNT:
!!!OPR: Vesperae de Apostolis in C
!!!OTL: Laudate pueri
!!!OMV: 002
!!!PDT:
!!!AGN: Sacred; Vespers
!!!YEC: Copyright 2022 Narodowy Instytut Fryderyka Chopina (https://polishscores.org)
!!!YEM: License CC-BY-4.0 (https://creativecommons.org/licenses/by/4.0)
!!!SMS-siglum: PL-CZ
!!!SMS-shelfmark: II-184
!!!SMS-shelfwork: 001-002 M
!!!SMS-variant:
!!!SMS-altvar:
!!!NIFC-rismSourceID: 300000912
!!!NIFC-rismChildID: 300000912
!!!NIFC-islandoraID: pl-cz:32706
!!!URL-pdf-islandora: https://repozytorium.nifc.pl/islandora/object/pl-cz%3A32706/datastream/PDF/view
!!!URL-scan: https://polish.musicsources.pl/pl/lokalizacje/galeria/rekopisy/6774/1 @EN{Scan on Polish Music Sources Website} @PL{Skany w portalu Dziedzictwo Muzyki Polskiej w otwartym dostępie}
!!!IIIF:
!!!ONB-nifc: UWAGA: części Vesperae: Dixit Dominus, Laudate pueri, Credidi, In convertendo, Domine probasti me, Magnificat
!!!AIN: 1 alto 3 empty 1 organ 1 tenor 2 violn 1 vox
!!!key: G
**kern	**fba	**dynam	**kern	**dynam	**kern	**dynam	**kern	**text	**kern	**text	**kern	**text	**kern	**text	**kern	**kern
*part9	*	*	*part8	*	*part7	*	*part6	*	*part5	*	*part4	*	*part3	*	*part2	*part1
*staff9	*	*	*staff8	*	*staff7	*	*staff6	*	*staff5	*	*staff4	*	*staff3	*	*staff2	*staff1
*Iorgan	*	*	*Ivioln	*	*Ivioln	*	*Iempty	*	*Itenor	*	*Ialto	*	*Ivox	*	*Iempty	*Iempty
*I"Organo	*	*	*I"Violino Secondo.	*	*I"Violino. Primo.	*	*I"Basſo	*	*I"Tenore	*	*I"Alto	*	*I"Canto	*	*I"Clarino Secondo ad libitum	*I"Clarino Primo ad libitum
*I'Org.	*	*	*I'V-no II	*	*I'V-no I	*	*I'B.	*	*I'T.	*	*I'A.	*	*I'C.	*	*I'Cl-no II	*I'Cl-no I
*ICklav	*	*	*ICstr	*	*ICstr	*	*ICvox	*	*ICvox	*	*ICvox	*	*ICvox	*	*ICbras	*ICbras
*clefF4	*	*	*clefG2	*	*clefG2	*	*clefF4	*	*clefC4	*	*clefC3	*	*clefC1	*	*clefG2	*clefG2
*	*	*	*	*	*	*	*	*	*	*	*	*	*	*	*ITrd-2c-4	*ITrd-2c-4
*k[f#c#g#d#]	*	*	*k[f#c#g#d#]	*	*k[f#c#g#d#]	*	*k[f#c#g#d#]	*	*k[f#c#g#d#]	*	*k[f#c#g#d#]	*	*k[c#f#d#g#]	*	*k[f#c#g#d#]	*k[f#c#g#d#]
*G:	*	*	*G:	*	*G:	*	*G:	*	*G:	*	*G:	*	*G:	*	*G:	*G:
*M3/4	*	*	*M3/4	*	*M3/4	*	*M3/4	*	*M3/4	*	*M3/4	*	*M3/4	*	*M3/4	*M3/4
=1	=1	=1	=1	=1	=1	=1	=1	=1	=1	=1	=1	=1	=1	=1	=1	=1
!	!	!	!	!	!LO:TX:t=P::problem=znaki przy kluczu&colon; w źródle są trzy, powtarzane przez kilka systemów,\nale później są już prawidłowo cztery	!	!	!	!	!	!	!	!	!	!	!
!	!	!LO:DY:a:t=f&colon;	!	!	!LO:TX:b:t=mo(derato)&colon;	!	!LO:TX:a:t=48.	!	!LO:TX:a:t=mod(erato)&colon;	!	!LO:TX:a:t=48	!	!	!	!LO:TX:a:t=Tacet	!LO:TX:a:t=Tacet
4E\	.	f	8e/L	.	8e/L	.	0.r	.	0.r	.	0.r	.	0.r	.	2.ryy	2.ryy
.	.	.	8g#/	.	8b/	.	.	.	.	.	.	.	.	.	.	.
4r	.	.	8f#/	.	8a/	.	.	.	.	.	.	.	.	.	.	.
.	.	.	8e/	.	8g#/	.	.	.	.	.	.	.	.	.	.	.
4r	.	.	8d#/	.	8f#/	.	.	.	.	.	.	.	.	.	.	.
.	.	.	8e/J	.	8e/J	.	.	.	.	.	.	.	.	.	.	.
=2	=2	=2	=2	=2	=2	=2	=2	=2	=2	=2	=2	=2	=2	=2	=2	=2
4E\	.	.	8r	.	8r	.	.	.	.	.	.	.	.	.	2.ryy	2.ryy
.	.	.	8b\L	.	8gg#\L	.	.	.	.	.	.	.	.	.	.	.
4r	.	.	8a\	.	8ff#\	.	.	.	.	.	.	.	.	.	.	.
.	.	.	8g#\	.	8ee\	.	.	.	.	.	.	.	.	.	.	.
4r	.	.	8f#\	.	8dd#\	.	.	.	.	.	.	.	.	.	.	.
.	.	.	8g#\J	.	8ee\J	.	.	.	.	.	.	.	.	.	.	.
=3	=3	=3	=3	=3	=3	=3	=3	=3	=3	=3	=3	=3	=3	=3	=3	=3
4A\	.	.	16cc#\LL	.	16cc#\LL	.	.	.	.	.	.	.	.	.	2.ryy	2.ryy
.	.	.	16dd#\	.	16dd#\	.	.	.	.	.	.	.	.	.	.	.
.	.	.	16ee\	.	16ee\	.	.	.	.	.	.	.	.	.	.	.
.	.	.	16cc#\JJ	.	16cc#\JJ	.	.	.	.	.	.	.	.	.	.	.
!LO:TX:t=P:problem=mixed beam	!	!	!	!	!	!	!	!	!	!	!	!	!	!	!	!
8B\L	6 4	.	4g#/	.	4b/	.	.	.	.	.	.	.	.	.	.	.
8BB/	.	.	.	.	.	.	.	.	.	.	.	.	.	.	.	.
8C#/	6	.	4f#/	.	4a/	.	.	.	.	.	.	.	.	.	.	.
8D#X/J	.	.	.	.	.	.	.	.	.	.	.	.	.	.	.	.
=4	=4	=4	=4	=4	=4	=4	=4	=4	=4	=4	=4	=4	=4	=4	=4	=4
4E/	.	.	16e/LL	.	16g#/LL	.	.	.	.	.	.	.	.	.	2.ryy	2.ryy
.	.	.	16B/	.	16g#/	.	.	.	.	.	.	.	.	.	.	.
.	.	.	16A/	.	16f#/	.	.	.	.	.	.	.	.	.	.	.
.	.	.	16c#/JJ	.	16e/JJ	.	.	.	.	.	.	.	.	.	.	.
.	.	.	8qqB/	.	.	.	.	.	.	.	.	.	.	.	.	.
4BB/	#	.	4A/	.	16r	.	.	.	.	.	.	.	.	.	.	.
.	.	.	.	.	16f#/LL	.	.	.	.	.	.	.	.	.	.	.
.	.	.	.	.	16e/	.	.	.	.	.	.	.	.	.	.	.
.	.	.	.	.	16d#X/JJ	.	.	.	.	.	.	.	.	.	.	.
.	.	.	.	.	8qqd#/	.	.	.	.	.	.	.	.	.	.	.
4EE/	.	.	4G#/	.	4e/	.	.	.	.	.	.	.	.	.	.	.
=5	=5	=5	=5	=5	=5	=5	=5	=5	=5	=5	=5	=5	=5	=5	=5	=5
!	!	!LO:DY:a:t=p&colon;	!	!	!	!LO:DY:a:t=p&colon;	!	!	!	!	!	!	!	!	!	!
4E\	.	p	4g#/	.	4b/	p	0.r	.	0.r	.	0.r	.	8r	.	2.ryy	2.ryy
!	!	!	!	!	!	!	!	!	!	!	!	!	!LO:TX:a:t=S&colon;	!	!	!
.	.	.	.	.	.	.	.	.	.	.	.	.	8b\	Lau-	.	.
!	!	!	!	!LO:DY:b	!	!	!	!	!	!	!	!	!	!	!	!
4r	.	.	8f#/L	p	8a/L	.	.	.	.	.	.	.	(8a\L	-da-	.	.
.	.	.	8e/	.	8g#/	.	.	.	.	.	.	.	8g#\J)	.	.	.
4r	.	.	8A/	.	8f#/	.	.	.	.	.	.	.	(>8f#/L	-te	.	.
.	.	.	8G#/J	.	8e/J	.	.	.	.	.	.	.	8e/J)	.	.	.
!	!	!	!	!	!LO:LB:g=original	!	!	!	!	!	!	!	!	!	!	!
=6	=6	=6	=6	=6	=6	=6	=6	=6	=6	=6	=6	=6	=6	=6	=6	=6
!	!	!	!LO:TX:t=P:problem=mixed beam	!	!	!	!	!	!	!	!	!	!	!	!	!
8E\L	8 6	.	8cc#\L	.	4ee\	.	.	.	.	.	.	.	4ee\	Pu-	2.ryy	2.ryy
8E\	.	.	8c#/	.	.	.	.	.	.	.	.	.	.	.	.	.
8E\	7	.	8B/	.	4dd#\	.	.	.	.	.	.	.	4dd#\	-e-	.	.
8E\	.	.	8b\	.	.	.	.	.	.	.	.	.	.	.	.	.
8E\	6 4	.	8a\	.	4cc#\	.	.	.	.	.	.	.	4cc#\	-ri	.	.
8E\J	.	.	8a\J	.	.	.	.	.	.	.	.	.	.	.	.	.
!LO:LB:g=original	!	!	!	!	!	!	!	!	!	!	!	!	!	!	!	!
=7	=7	=7	=7	=7	=7	=7	=7	=7	=7	=7	=7	=7	=7	=7	=7	=7
8E\L	_ _	.	8a/L	.	(8cc#\L	.	.	.	.	.	.	.	8cc#\	Do-	2.ryy	2.ryy
8E\	5	.	8g#/J	.	8b\J)	.	.	.	.	.	.	.	8b\	-mi-	.	.
8E\	.	.	4g#/	.	4b\	.	.	.	.	.	.	.	4b\	-num	.	.
8E\	.	.	.	.	.	.	.	.	.	.	.	.	.	.	.	.
8E\	.	.	16e/LL	.	16e/LL	.	.	.	.	.	.	.	4r	.	.	.
.	.	.	16d#/	.	16f#/	.	.	.	.	.	.	.	.	.	.	.
8E\J	.	.	16e/	.	16g#/	.	.	.	.	.	.	.	.	.	.	.
.	.	.	16f#/JJ	.	16a/JJ	.	.	.	.	.	.	.	.	.	.	.
!	!	!	!LO:LB:g=original	!	!	!	!	!	!	!	!	!	!	!	!	!
=8	=8	=8	=8	=8	=8	=8	=8	=8	=8	=8	=8	=8	=8	=8	=8	=8
4E\	.	.	4g#/	.	4b/	.	.	.	.	.	.	.	8r	.	2.ryy	2.ryy
.	.	.	.	.	.	.	.	.	.	.	.	.	8b\	Lau-	.	.
4r	.	.	8f#/L	.	8a/L	.	.	.	.	.	.	.	(8a\L	-da-	.	.
.	.	.	8e/	.	8g#/	.	.	.	.	.	.	.	8g#\J)	.	.	.
4r	.	.	8d#/	.	8f#/	.	.	.	.	.	.	.	(>8f#/L	-te	.	.
.	.	.	8e/J	.	8e/J	.	.	.	.	.	.	.	8e/J)	.	.	.
=9	=9	=9	=9	=9	=9	=9	=9	=9	=9	=9	=9	=9	=9	=9	=9	=9
4E\	5	.	8g#/L	.	8ee\L	.	0.r	.	0.r	.	0.r	.	(8ee\L	no-	2.ryy	2.ryy
.	6	.	8a/J	.	8cc#\	.	.	.	.	.	.	.	8cc#\J)	.	.	.
!	!	!	!	!	!	!	!	!	!	!	!	!	!LO:LB:g=original	!	!	!
!	!	!	!	!	!	!	!	!	!	!	!	!	!LO:TX:t=P:problem=skreslone caudy ósemkowe	!	!	!
8F#\L	.	.	4f#/	.	8a\	.	.	.	.	.	.	.	(4a\	-men	.	.
8D#\J	.	.	.	.	8ff#\	.	.	.	.	.	.	.	.	.	.	.
4E\	.	.	8B/L	.	8g#\	.	.	.	.	.	.	.	4g#\)	.	.	.
.	.	.	8g#/J	.	8ee\J	.	.	.	.	.	.	.	.	.	.	.
=10	=10	=10	=10	=10	=10	=10	=10	=10	=10	=10	=10	=10	=10	=10	=10	=10
!LO:TX:t=P:problem=mixed beam	!	!	!	!	!	!	!	!	!	!	!	!	!	!	!	!
8B\L	6 4	.	8e/L	.	8g#/L	.	.	.	.	.	.	.	8g#/	Do-	2.ryy	2.ryy
.	5 3	.	.	.	.	.	.	.	.	.	.	.	.	.	.	.
8BB/	.	.	8d#/J	.	8f#/J	.	.	.	.	.	.	.	8f#/	-mi-	.	.
8BB/	.	.	4d#/	.	4f#/	.	.	.	.	.	.	.	4f#/	-ni	.	.
8BB/	.	.	.	.	.	.	.	.	.	.	.	.	.	.	.	.
8BB/	.	.	4f#/	.	4b/	.	.	.	.	.	.	.	4b\	Sit	.	.
8BB/J	.	.	.	.	.	.	.	.	.	.	.	.	.	.	.	.
=11	=11	=11	=11	=11	=11	=11	=11	=11	=11	=11	=11	=11	=11	=11	=11	=11
*2\right	*	*	*	*	*	*	*	*	*	*	*	*	*	*	*	*
2.D#\	6	.	2.f#/	.	4b/	.	.	.	.	.	.	.	(4b\	no-	2.ryy	2.ryy
.	5	.	.	.	4f#/	.	.	.	.	.	.	.	4f#\)	.	.	.
.	.	.	.	.	4a/	.	.	.	.	.	.	.	4a\	-men	.	.
=12	=12	=12	=12	=12	=12	=12	=12	=12	=12	=12	=12	=12	=12	=12	=12	=12
4E\	9 4	.	8f#/L	.	8a/L	.	.	.	.	.	.	.	8a\	Do-	2.ryy	2.ryy
.	8 9	.	8e/	.	8g#/J	.	.	.	.	.	.	.	8g#\	-mi-	.	.
*	*	*	*	*	*	*	*	*	*	*	*	*	*2\right	*	*	*
8r	.	.	8e/	.	4g#/	.	.	.	.	.	.	.	2g#\	-ni	.	.
8E\L	.	.	8g#/	.	.	.	.	.	.	.	.	.	.	.	.	.
8E\	.	.	8g#/	.	16e/LL	.	.	.	.	.	.	.	.	.	.	.
.	.	.	.	.	32f#/L	.	.	.	.	.	.	.	.	.	.	.
.	.	.	.	.	32g#/	.	.	.	.	.	.	.	.	.	.	.
8E\J	.	.	8g#/J	.	32a/	.	.	.	.	.	.	.	.	.	.	.
.	.	.	.	.	32b/	.	.	.	.	.	.	.	.	.	.	.
.	.	.	.	.	32cc#/	.	.	.	.	.	.	.	.	.	.	.
.	.	.	.	.	32dd#/JJJ	.	.	.	.	.	.	.	.	.	.	.
!	!	!	!	!	!LO:LB:g=original	!	!	!	!	!	!	!	!	!	!	!
=13	=13	=13	=13	=13	=13	=13	=13	=13	=13	=13	=13	=13	=13	=13	=13	=13
4E\	.	.	8g#/L	.	8ee\L	.	0.r	.	0.r	.	0.r	.	(8ee\L	Be-	2.ryy	2.ryy
.	.	.	8f#/J	.	8cc#\J	.	.	.	.	.	.	.	8dd#\J)	.	.	.
4r	.	.	4e/	.	4b\	.	.	.	.	.	.	.	4cc#\	.	.	.
4E#X\	.	.	4d#/	.	4a\	.	.	.	.	.	.	.	4b\	-ne-	.	.
=14	=14	=14	=14	=14	=14	=14	=14	=14	=14	=14	=14	=14	=14	=14	=14	=14
8F#\L	6 4	.	4d#/	.	4b\	.	.	.	.	.	.	.	4b\	-di-	2.ryy	2.ryy
8F#\	5 #	.	.	.	.	.	.	.	.	.	.	.	.	.	.	.
!	!	!	!LO:TX:t=P:problem=mixed beam	!	!	!	!	!	!	!	!	!	!	!	!	!
8F#\	.	.	8c#/L	.	8a#X\L	.	.	.	.	.	.	.	4a#X\	-ctum	.	.
8F#\	.	.	8cc#\	.	8aa#X\	.	.	.	.	.	.	.	.	.	.	.
8F#\	.	.	8cc#\	.	8aa#\	.	.	.	.	.	.	.	8r	.	.	.
8F#\J	.	.	8cc#\J	.	8aa#\J	.	.	.	.	.	.	.	8ff#\	ex	.	.
!LO:LB:g=original	!	!	!	!	!	!	!	!	!	!	!	!	!	!	!	!
=15	=15	=15	=15	=15	=15	=15	=15	=15	=15	=15	=15	=15	=15	=15	=15	=15
8F#\L	#	.	8cc#\L	.	8aa#X\L	.	.	.	.	.	.	.	2ff#\	hoc	2.ryy	2.ryy
8F#\	.	.	8cc#\	.	8aa#\	.	.	.	.	.	.	.	.	.	.	.
8F#\	.	.	8cc#\	.	8aa#\	.	.	.	.	.	.	.	.	.	.	.
8F#\	.	.	8cc#\J	.	8aa#\	.	.	.	.	.	.	.	.	.	.	.
8F#\	.	.	4cc#\	.	8aa#\	.	.	.	.	.	.	.	4r	.	.	.
8F#\J	.	.	.	.	8aa#\J	.	.	.	.	.	.	.	.	.	.	.
!	!	!	!LO:LB:g=original	!	!	!	!	!	!	!	!	!	!LO:LB:g=original	!	!	!
=16	=16	=16	=16	=16	=16	=16	=16	=16	=16	=16	=16	=16	=16	=16	=16	=16
8F#\L	#	.	8cc#\L	.	8aa#X\L	.	.	.	.	.	.	.	4cc#\	nunc	2.ryy	2.ryy
8F#\	.	.	8cc#\	.	8aa#\	.	.	.	.	.	.	.	.	.	.	.
8A#X\	6	.	8f#\	.	8ccc#\	.	.	.	.	.	.	.	4r	.	.	.
8A#\	.	.	8f#\	.	8ccc#\	.	.	.	.	.	.	.	.	.	.	.
8A#\	5	.	8ee\	.	8ccc#\	.	.	.	.	.	.	.	8r	.	.	.
8A#\J	.	.	8ee\J	.	8ccc#\J	.	.	.	.	.	.	.	8ee\	et	.	.
=17	=17	=17	=17	=17	=17	=17	=17	=17	=17	=17	=17	=17	=17	=17	=17	=17
!LO:TX:t=P:problem=mixed beam	!	!	!LO:TX:t=P:problem=mixed beam	!	!	!	!	!	!	!	!	!	!	!	!	!
8B\L	9 4	.	8ee\L	.	8ccc#\L	.	0.r	.	0.r	.	0.r	.	4ee\	Us-	2.ryy	2.ryy
8BB/	.	.	8ee\	.	8ccc#\	.	.	.	.	.	.	.	.	.	.	.
8BB/	8 3	.	8dd#\	.	8bb\	.	.	.	.	.	.	.	4dd#\	-q(uae)	.	.
8BB/	.	.	8dd#\	.	8bb\	.	.	.	.	.	.	.	.	.	.	.
8BB/	.	.	8f#/	.	8dd#\	.	.	.	.	.	.	.	4r	.	.	.
8BB/J	.	.	8f#/J	.	8dd#\J	.	.	.	.	.	.	.	.	.	.	.
=18	=18	=18	=18	=18	=18	=18	=18	=18	=18	=18	=18	=18	=18	=18	=18	=18
4E\	6	.	4g#/	.	4cc#\	.	.	.	.	.	.	.	4cc#\	Us-	2.ryy	2.ryy
4E\	.	.	4g#/	.	4cc#\	.	.	.	.	.	.	.	(8ee\L	-q(uae)	.	.
.	.	.	.	.	.	.	.	.	.	.	.	.	8cc#\J)	.	.	.
4E\	5	.	4g#/	.	4b\	.	.	.	.	.	.	.	(8dd#\L	in	.	.
.	.	.	.	.	.	.	.	.	.	.	.	.	8b\J)	.	.	.
=19	=19	=19	=19	=19	=19	=19	=19	=19	=19	=19	=19	=19	=19	=19	=19	=19
!	!	!	!	!	!	!	!	!	!	!	!	!	!LO:TX:t=P:problem=niepewny rytm	!	!	!
.	.	.	.	.	8qqb/	.	.	.	.	.	.	.	.	.	.	.
4F#\	#	.	8c#/	.	4.a#X/	.	.	.	.	.	.	.	4.a#X\	Sae-	2.ryy	2.ryy
.	.	.	4c#/	.	.	.	.	.	.	.	.	.	.	.	.	.
4G#\	6\	.	.	.	.	.	.	.	.	.	.	.	.	.	.	.
!	!	!	!	!	!LO:TX:t=P:problem=zapis poprawiany	!	!	!	!	!	!	!	!	!	!	!
!	!	!	!	!	!LO:TX:b:t=g	!	!	!	!	!	!	!	!	!	!	!
.	.	.	4c#/	.	8g#/	.	.	.	.	.	.	.	8g#\	-cu-	.	.
!	!	!	!	!	!LO:TX:t=P:problem=mixed beam	!	!	!	!	!	!	!	!	!	!	!
4A#X\	6	.	.	.	8f#/L	.	.	.	.	.	.	.	8f#\	-lum	.	.
!	!	!	!	!	!LO:TX:a:t=e	!	!	!	!	!	!	!	!LO:TX:t=P:problem=zapis niejednoznaczny	!	!	!
.	.	.	8cc#\	.	8ee\J	.	.	.	.	.	.	.	8ee\	in	.	.
!	!	!	!	!	!LO:LB:g=original	!	!	!	!	!	!	!	!	!	!	!
=20	=20	=20	=20	=20	=20	=20	=20	=20	=20	=20	=20	=20	=20	=20	=20	=20
8B\L	.	.	8b\L	.	8dd#\L	.	.	.	.	.	.	.	(16dd#\LL	Sae-	2.ryy	2.ryy
.	.	.	.	.	.	.	.	.	.	.	.	.	16ee\J	.	.	.
8A#X\J	.	.	8cc#\J	.	16ee\L	.	.	.	.	.	.	.	8ff#\J)	.	.	.
.	.	.	.	.	16ff#\JJ	.	.	.	.	.	.	.	.	.	.	.
4A#\	.	.	4cc#\	.	4ee\	.	.	.	.	.	.	.	8ee\L	.	.	.
.	.	.	.	.	.	.	.	.	.	.	.	.	(8cc#\	.	.	.
4r	.	.	4r	.	4r	.	.	.	.	.	.	.	8a\)	.	.	.
.	.	.	.	.	.	.	.	.	.	.	.	.	8f#\J	.	.	.
!	!	!	!	!	!	!	!	!	!	!	!	!	!LO:LB:g=original	!	!	!
=21	=21	=21	=21	=21	=21	=21	=21	=21	=21	=21	=21	=21	=21	=21	=21	=21
*	*	*	*^	*	*	*	*	*	*	*	*	*	*	*	*	*
4B\	.	.	4f#/	4ryy	.	8dd#\L	.	0.r	.	0.r	.	0.r	.	8dd#\L	.	2.ryy	2.ryy
.	.	.	.	.	.	16ee\L	.	.	.	.	.	.	.	8b\	.	.	.
.	.	.	.	.	.	16ff#\JJ	.	.	.	.	.	.	.	.	.	.	.
.	.	.	.	.	.	8qqff#/	.	.	.	.	.	.	.	.	.	.	.
4A#X\	.	.	4cc#/	4f#\	.	4ee\	.	.	.	.	.	.	.	8ee\	.	.	.
.	.	.	.	.	.	.	.	.	.	.	.	.	.	8cc#\	.	.	.
4r	.	.	4r	4ryy	.	4r	.	.	.	.	.	.	.	8a#X\	.	.	.
.	.	.	.	.	.	.	.	.	.	.	.	.	.	8f#\J	.	.	.
*	*	*	*v	*v	*	*	*	*	*	*	*	*	*	*	*	*	*
=22	=22	=22	=22	=22	=22	=22	=22	=22	=22	=22	=22	=22	=22	=22	=22	=22
4BB/	.	.	4b\	.	4dd#\	.	.	.	.	.	.	.	16dd#\LL	.	2.ryy	2.ryy
.	.	.	.	.	.	.	.	.	.	.	.	.	16b\	.	.	.
.	.	.	.	.	.	.	.	.	.	.	.	.	16cc#\	.	.	.
.	.	.	.	.	.	.	.	.	.	.	.	.	16dd#\JJ	.	.	.
4C#/	.	.	4a#X\	.	4ee\	.	.	.	.	.	.	.	16ee\LL	.	.	.
.	.	.	.	.	.	.	.	.	.	.	.	.	16cc#\	.	.	.
.	.	.	.	.	.	.	.	.	.	.	.	.	16dd#\	.	.	.
.	.	.	.	.	.	.	.	.	.	.	.	.	16ee\JJ	.	.	.
4D#/	.	.	8r	.	4ff#\	.	.	.	.	.	.	.	16ff#\LL	.	.	.
.	.	.	.	.	.	.	.	.	.	.	.	.	16dd#\	.	.	.
.	.	.	8b\	.	.	.	.	.	.	.	.	.	16ee\	.	.	.
.	.	.	.	.	.	.	.	.	.	.	.	.	16ff#\JJ	.	.	.
!LO:LB:g=original	!	!	!LO:LB:g=original	!	!	!	!	!	!	!	!	!	!	!	!	!
=23	=23	=23	=23	=23	=23	=23	=23	=23	=23	=23	=23	=23	=23	=23	=23	=23
8E\L	.	.	8b\L	.	16gg#\LL	.	.	.	.	.	.	.	4gg#\	.	2.ryy	2.ryy
.	.	.	.	.	16ee\	.	.	.	.	.	.	.	.	.	.	.
8E\	.	.	8g#\J	.	16ff#\	.	.	.	.	.	.	.	.	.	.	.
.	.	.	.	.	16gg#\JJ	.	.	.	.	.	.	.	.	.	.	.
8E\	.	.	4g#/	.	16ee\LL	.	.	.	.	.	.	.	4ee\	.	.	.
.	.	.	.	.	16cc#\	.	.	.	.	.	.	.	.	.	.	.
8E\	.	.	.	.	16dd#\	.	.	.	.	.	.	.	.	.	.	.
.	.	.	.	.	16ee\JJ	.	.	.	.	.	.	.	.	.	.	.
8E\	6	.	4g#/	.	16cc#\LL	.	.	.	.	.	.	.	4cc#\	.	.	.
.	.	.	.	.	16g#\	.	.	.	.	.	.	.	.	.	.	.
8E\J	.	.	.	.	16b#X\	.	.	.	.	.	.	.	.	.	.	.
.	.	.	.	.	16cc#\JJ	.	.	.	.	.	.	.	.	.	.	.
=24	=24	=24	=24	=24	=24	=24	=24	=24	=24	=24	=24	=24	=24	=24	=24	=24
4F#\	6 4	.	8b/L	.	8dd#\L	.	.	.	.	.	.	.	8dd#\L	.	2.ryy	2.ryy
.	.	.	16g#/L	.	16ee\L	.	.	.	.	.	.	.	16ee\L	.	.	.
!	!	!	!	!	!LO:TX:t=P:problem=zapis poprawiany	!	!	!	!	!	!	!	!	!	!	!
!	!	!	!	!	!LO:TX:a:t=c	!	!	!	!	!	!	!	!	!	!	!
.	.	.	16e/JJ	.	16cc#\JJ	.	.	.	.	.	.	.	16cc#\JJ	.	.	.
8r	.	.	8d#/L	.	8b\L	.	.	.	.	.	.	.	4b\	.	.	.
8G#\L	.	.	8B/J	.	8b\	.	.	.	.	.	.	.	.	.	.	.
8F#\	#	.	4e/	.	8a#X\	.	.	.	.	.	.	.	8.cc#\	.	.	.
8F#\J	.	.	.	.	8a#\J	.	.	.	.	.	.	.	.	.	.	.
.	.	.	.	.	.	.	.	.	.	.	.	.	16cc#\	-cu-	.	.
=25	=25	=25	=25	=25	=25	=25	=25	=25	=25	=25	=25	=25	=25	=25	=25	=25
!	!	!LO:DY:a:t=for&colon;	!LO:TX:t=P:problem=mixed beam	!LO:DY:a:t=f&colon;	!LO:TX:t=P:problem=mixed beam	!LO:DY:a:t=f&colon;	!	!	!	!	!	!	!	!	!	!
4BB/	.	f	8d#/L	f	8B/L	f	0.r	.	0.r	.	0.r	.	4b\	-lum	2.ryy	2.ryy
.	.	.	8dd#\	.	8ff#\	.	.	.	.	.	.	.	.	.	.	.
!	!	!	!	!	!	!	!	!	!	!	!	!	!LO:LB:g=original	!	!	!
4r	.	.	8cc#\	.	8ee\	.	.	.	.	.	.	.	4r	.	.	.
.	.	.	8b\	.	8dd#\	.	.	.	.	.	.	.	.	.	.	.
4r	.	.	8e\	.	8cc#\	.	.	.	.	.	.	.	4r	.	.	.
.	.	.	8d#\J	.	8b\J	.	.	.	.	.	.	.	.	.	.	.
!	!	!	!	!	!LO:LB:g=original	!	!	!	!	!	!	!	!	!	!	!
=26	=26	=26	=26	=26	=26	=26	=26	=26	=26	=26	=26	=26	=26	=26	=26	=26
4F#\	4	.	16dd#\LL	.	16bb\LL	.	.	.	.	.	.	.	1.r	.	2.ryy	2.ryy
.	#	.	16cc#\	.	16aa#X\	.	.	.	.	.	.	.	.	.	.	.
.	.	.	16a#X\	.	16cc#\	.	.	.	.	.	.	.	.	.	.	.
.	.	.	16b\JJ	.	16dd#\JJ	.	.	.	.	.	.	.	.	.	.	.
*	*	*	*2\right	*	*2\right	*	*	*	*	*	*	*	*	*	*	*
8r	.	.	2cc#\	.	2ee\	.	.	.	.	.	.	.	.	.	.	.
8F#\L	.	.	.	.	.	.	.	.	.	.	.	.	.	.	.	.
8G#\	.	.	.	.	.	.	.	.	.	.	.	.	.	.	.	.
8A#X\J	.	.	.	.	.	.	.	.	.	.	.	.	.	.	.	.
=27	=27	=27	=27	=27	=27	=27	=27	=27	=27	=27	=27	=27	=27	=27	=27	=27
*	*	*	*	*	*Xtuplet	*	*	*	*	*	*	*	*	*	*	*
8B\L	.	.	24b\LL	.	24dd#\LL	.	.	.	.	.	.	.	.	.	2.ryy	2.ryy
.	.	.	24cc#\	.	24ee\	.	.	.	.	.	.	.	.	.	.	.
.	.	.	24dd#\JJ	.	24ff#\JJ	.	.	.	.	.	.	.	.	.	.	.
8E\J	.	.	24ee\LL	.	24gg#\LL	.	.	.	.	.	.	.	.	.	.	.
.	.	.	24dd#\	.	24ff#\	.	.	.	.	.	.	.	.	.	.	.
.	.	.	24cc#\JJ	.	24ee\JJ	.	.	.	.	.	.	.	.	.	.	.
4F#\	.	.	16b/LL	.	16dd#|\LL	.	.	.	.	.	.	.	.	.	.	.
.	.	.	16f#/	.	(16dd#\	.	.	.	.	.	.	.	.	.	.	.
.	.	.	16e/	.	16cc#\	.	.	.	.	.	.	.	.	.	.	.
.	.	.	16d#/JJ	.	16b\JJ)	.	.	.	.	.	.	.	.	.	.	.
4F#\	.	.	16e/LL	.	16cc#|\LL	.	.	.	.	.	.	.	.	.	.	.
.	.	.	16e/	.	(16cc#\	.	.	.	.	.	.	.	.	.	.	.
.	.	.	16d#/	.	16b\	.	.	.	.	.	.	.	.	.	.	.
.	.	.	16c#/JJ	.	16a#X\JJ)	.	.	.	.	.	.	.	.	.	.	.
=28	=28	=28	=28	=28	=28	=28	=28	=28	=28	=28	=28	=28	=28	=28	=28	=28
8.B\L	.	.	8.d#/L	.	8.b/L	.	.	.	.	.	.	.	2.r	.	2.ryy	2.ryy
16F#\K	.	.	16f#/K	.	16f#/K	.	.	.	.	.	.	.	.	.	.	.
8.D#\	.	.	8.d#/	.	8.d#/	.	.	.	.	.	.	.	.	.	.	.
16F#\Jk	.	.	16f#/Jk	.	16f#/Jk	.	.	.	.	.	.	.	.	.	.	.
4BB/	.	.	4B/	.	4B/	.	.	.	.	.	.	.	.	.	.	.
!	!	!	!LO:LB:g=original	!	!	!	!	!	!	!	!	!	!	!	!	!
=29	=29	=29	=29	=29	=29	=29	=29	=29	=29	=29	=29	=29	=29	=29	=29	=29
!	!	!LO:DY:a:t=p&colon;	!	!	!	!LO:DY:b:t=p&colon;	!	!	!	!	!	!	!	!	!	!
8BB/L	.	p	8d#/	.	8b/	p	0.r	.	0.r	.	0.r	.	4b\	a	2.ryy	2.ryy
8BB/	.	.	4d#/	.	4b/	.	.	.	.	.	.	.	.	.	.	.
8BB/	.	.	.	.	.	.	.	.	.	.	.	.	4b\	So-	.	.
8BB/	.	.	4d#/	.	4b/	.	.	.	.	.	.	.	.	.	.	.
8BB/	.	.	.	.	.	.	.	.	.	.	.	.	4b\	-lis	.	.
8BB/J	.	.	8d#/	.	8b/	.	.	.	.	.	.	.	.	.	.	.
!LO:LB:g=original	!	!	!	!	!	!	!	!	!	!	!	!	!	!	!	!
=30	=30	=30	=30	=30	=30	=30	=30	=30	=30	=30	=30	=30	=30	=30	=30	=30
8C#/L	6\	.	8e/	.	8a#X/	.	.	.	.	.	.	.	(8a#X\L	or-	2.ryy	2.ryy
8C#/	.	.	4ee\	.	4a#/	.	.	.	.	.	.	.	8cc#\J)	.	.	.
8C#/	.	.	.	.	.	.	.	.	.	.	.	.	2ee\	-tu	.	.
8C#/	.	.	4ee\	.	4a#/	.	.	.	.	.	.	.	.	.	.	.
8C#/	.	.	.	.	.	.	.	.	.	.	.	.	.	.	.	.
8C#/J	.	.	8ee\	.	8a#/	.	.	.	.	.	.	.	.	.	.	.
=31	=31	=31	=31	=31	=31	=31	=31	=31	=31	=31	=31	=31	=31	=31	=31	=31
4BB/	.	.	8dd#\L	.	8b\L	.	.	.	.	.	.	.	8dd#\L	Us-	2.ryy	2.ryy
.	.	.	8a\J	.	8ff#\J	.	.	.	.	.	.	.	8ff#\J	-q(uae)	.	.
8C#/L	6	.	4a/	.	4ff#\	.	.	.	.	.	.	.	4a\	ad	.	.
8D#/J	.	.	.	.	.	.	.	.	.	.	.	.	.	.	.	.
4E\	.	.	4g#/	.	4ee\	.	.	.	.	.	.	.	4g#\	oc-	.	.
!	!	!	!	!	!LO:LB:g=original	!	!	!	!	!	!	!	!	!	!	!
=32	=32	=32	=32	=32	=32	=32	=32	=32	=32	=32	=32	=32	=32	=32	=32	=32
!LO:TX:t=P:problem=mixed beam	!	!	!	!	!	!	!	!	!	!	!	!	!	!	!	!
8B\L	6 4	.	4g#/	.	4ee\	.	.	.	.	.	.	.	4g#\	-ca-	2.ryy	2.ryy
8BB/	6 3	.	.	.	.	.	.	.	.	.	.	.	.	.	.	.
8BB/	.	.	4f#/	.	4dd#\	.	.	.	.	.	.	.	4f#\	-sum	.	.
8BB\	.	.	.	.	.	.	.	.	.	.	.	.	.	.	.	.
8B\	.	.	8f#/L	.	8b\L	.	.	.	.	.	.	.	4b\	lau-	.	.
8A\J	.	.	8f#/J	.	8b\J	.	.	.	.	.	.	.	.	.	.	.
=33	=33	=33	=33	=33	=33	=33	=33	=33	=33	=33	=33	=33	=33	=33	=33	=33
4G#\	6	.	8b\L	.	8ee\L	.	0.r	.	0.r	.	0.r	.	16ee\LL	-da-	2.ryy	2.ryy
.	.	.	.	.	.	.	.	.	.	.	.	.	16dd#\	.	.	.
.	.	.	8b\	.	8ee\	.	.	.	.	.	.	.	16cc#\	.	.	.
.	.	.	.	.	.	.	.	.	.	.	.	.	16b\JJ	.	.	.
!	!	!	!	!	!	!	!	!	!	!	!	!	!LO:LB:g=original	!	!	!
4A\	.	.	8.a\	.	8cc#\	.	.	.	.	.	.	.	16cc#\LL	.	.	.
.	.	.	.	.	.	.	.	.	.	.	.	.	16b\	.	.	.
.	.	.	.	.	8cc#\	.	.	.	.	.	.	.	16a\	-bi-	.	.
.	.	.	16g#\K	.	.	.	.	.	.	.	.	.	16g#\JJ	-le	.	.
4A#X\	.	.	8f#\	.	8cc#\	.	.	.	.	.	.	.	8f#/	no-	.	.
.	.	.	8e\J	.	8cc#\J	.	.	.	.	.	.	.	8e/	-men	.	.
=34	=34	=34	=34	=34	=34	=34	=34	=34	=34	=34	=34	=34	=34	=34	=34	=34
2B\	.	.	2d#/	.	2b\	.	.	.	.	.	.	.	8d#/	Do-	2.ryy	2.ryy
.	.	.	.	.	.	.	.	.	.	.	.	.	4f#/	-mi-	.	.
.	.	.	.	.	.	.	.	.	.	.	.	.	4b\	-ni	.	.
4r;	.	.	4r;	.	4r;	.	.	.	.	.	.	.	.	.	.	.
.	.	.	.	.	.	.	.	.	.	.	.	.	8r;	.	.	.
=35	=35	=35	=35	=35	=35	=35	=35	=35	=35	=35	=35	=35	=35	=35	=35	=35
!	!	!	!	!	!	!LO:DY:b:t=p&colon;	!	!	!	!	!	!	!	!	!	!
4E\	.	.	8G#/L	.	8e/L	p	.	.	.	.	.	.	8r	.	2.ryy	2.ryy
.	.	.	8g#/	.	8b/	.	.	.	.	.	.	.	8b\	Ex-	.	.
4r	.	.	8f#/	.	8a/	.	.	.	.	.	.	.	(8a\L	-cel-	.	.
.	.	.	8e/	.	8g#/	.	.	.	.	.	.	.	8g#\J)	.	.	.
4r	.	.	8d#/	.	8f#/	.	.	.	.	.	.	.	(>8f#/L	-sus	.	.
.	.	.	8e/J	.	8e/J	.	.	.	.	.	.	.	8e/J)	.	.	.
=36	=36	=36	=36	=36	=36	=36	=36	=36	=36	=36	=36	=36	=36	=36	=36	=36
!	!	!	!LO:TX:t=P:problem=dziwne oznaczenie nad nutami	!	!	!	!	!	!	!	!	!	!	!	!	!
16E\LL	6 4	.	8cc#\L	.	8ee\L	.	.	.	.	.	.	.	(4ee\	Su-	2.ryy	2.ryy
16F#\	.	.	.	.	.	.	.	.	.	.	.	.	.	.	.	.
16G#\	.	.	8cc#\	.	8ee\	.	.	.	.	.	.	.	.	.	.	.
16E\JJ	.	.	.	.	.	.	.	.	.	.	.	.	.	.	.	.
8E\L	7	.	8b\	.	8dd#\	.	.	.	.	.	.	.	4dd#\)	.	.	.
8E\	6 4	.	8b\	.	8dd#\	.	.	.	.	.	.	.	.	.	.	.
8E\	.	.	8a\	.	8cc#\	.	.	.	.	.	.	.	4cc#\	-per	.	.
8E\J	.	.	8a\J	.	8cc#\J	.	.	.	.	.	.	.	.	.	.	.
!LO:LB:g=original	!	!	!LO:LB:g=original	!	!	!	!	!	!	!	!	!	!	!	!	!
=37	=37	=37	=37	=37	=37	=37	=37	=37	=37	=37	=37	=37	=37	=37	=37	=37
8E\L	_ _	.	8a/L	.	8cc#\L	.	0.r	.	0.r	.	0.r	.	(8cc#\L	om-	2.ryy	2.ryy
8E\	5	.	8g#/J	.	8b\J	.	.	.	.	.	.	.	8b\J)	.	.	.
8E\	.	.	4g#/	.	4b\	.	.	.	.	.	.	.	2b\	-nes	.	.
8E\	.	.	.	.	.	.	.	.	.	.	.	.	.	.	.	.
8E\	.	.	16g#/LL	.	16ee\LL	.	.	.	.	.	.	.	.	.	.	.
.	.	.	16f#/	.	16dd#\	.	.	.	.	.	.	.	.	.	.	.
8E\J	.	.	16g#/	.	16ee\	.	.	.	.	.	.	.	.	.	.	.
.	.	.	16d#/JJ	.	16ff#\JJ	.	.	.	.	.	.	.	.	.	.	.
!	!	!	!	!	!	!	!	!	!	!	!	!	!LO:PB:g=original	!	!	!
=38	=38	=38	=38	=38	=38	=38	=38	=38	=38	=38	=38	=38	=38	=38	=38	=38
!	!	!	!LO:TX:t=P:problem=mixed beam	!	!	!	!	!	!	!	!	!	!	!	!	!
8E\L	.	.	8e/L	.	(4gg#\	.	.	.	.	.	.	.	(4gg#\	su-	2.ryy	2.ryy
8A#X\	.	.	8ee\	.	.	.	.	.	.	.	.	.	.	.	.	.
8A#\	.	.	8dd#\	.	4ff#\)	.	.	.	.	.	.	.	4ff#\)	.	.	.
8A#\	6	.	8dd#\	.	.	.	.	.	.	.	.	.	.	.	.	.
8A#\	.	.	8cc#\	.	4ee|\	.	.	.	.	.	.	.	4ee\	-per	.	.
8A#\J	5	.	8cc#\J	.	.	.	.	.	.	.	.	.	.	.	.	.
=39	=39	=39	=39	=39	=39	=39	=39	=39	=39	=39	=39	=39	=39	=39	=39	=39
8F#\L	.	.	8cc#\L	.	(4ee\	.	.	.	.	.	.	.	(4ee\	o-	2.ryy	2.ryy
8F#\	7 #	.	8cc#\	.	.	.	.	.	.	.	.	.	.	.	.	.
8F#\	.	.	8b\	.	4dd#\)	.	.	.	.	.	.	.	4dd#\)	.	.	.
8F#\	6 4	.	8b\	.	.	.	.	.	.	.	.	.	.	.	.	.
8F#\	5 #	.	8a#X\	.	4cc#|\	.	.	.	.	.	.	.	4cc#\	-mnes	.	.
8F#\J	.	.	8a#\J	.	.	.	.	.	.	.	.	.	.	.	.	.
=40	=40	=40	=40	=40	=40	=40	=40	=40	=40	=40	=40	=40	=40	=40	=40	=40
8F#\L	.	.	8e/L	.	(4cc#\	.	.	.	.	.	.	.	(4cc#\	gen-	2.ryy	2.ryy
8F#\	7 #	.	8e/	.	.	.	.	.	.	.	.	.	.	.	.	.
8F#\	.	.	8d#/	.	4b\)	.	.	.	.	.	.	.	4b\)	.	.	.
8F#\	6 4	.	8d#/	.	.	.	.	.	.	.	.	.	.	.	.	.
8F#\	.	.	8c#/	.	4a#X|\	.	.	.	.	.	.	.	4a#X\	-tes	.	.
8F#\J	5 #	.	8c#/J	.	.	.	.	.	.	.	.	.	.	.	.	.
!	!	!	!	!	!LO:LB:g=original	!	!	!	!	!	!	!	!	!	!	!
=41	=41	=41	=41	=41	=41	=41	=41	=41	=41	=41	=41	=41	=41	=41	=41	=41
8BB/L	7	.	8d#/L	.	8an\L	.	0.r	.	0.r	.	0.r	.	8.ff#\	Do-	2.ryy	2.ryy
8BB/	.	.	8d#/	.	8ff#\	.	.	.	.	.	.	.	.	.	.	.
.	.	.	.	.	.	.	.	.	.	.	.	.	16a\	-mi-	.	.
8BB/	.	.	8d#/	.	8ff#\	.	.	.	.	.	.	.	4a\	-nus	.	.
8BB/	.	.	8d#/	.	8ff#\	.	.	.	.	.	.	.	.	.	.	.
8BB/	.	.	8d#/	.	8ff#\	.	.	.	.	.	.	.	4r	.	.	.
8BB/J	.	.	8d#/J	.	8ff#\J	.	.	.	.	.	.	.	.	.	.	.
=42	=42	=42	=42	=42	=42	=42	=42	=42	=42	=42	=42	=42	=42	=42	=42	=42
8E\L	.	.	8e/L	.	8g#/L	.	.	.	.	.	.	.	4g#\	et	2.ryy	2.ryy
8E\	.	.	8e/	.	8g#/	.	.	.	.	.	.	.	.	.	.	.
8E\	4 2	.	8f#/	.	8a/	.	.	.	.	.	.	.	4a\	su-	.	.
8E\	.	.	8f#/	.	8a/	.	.	.	.	.	.	.	.	.	.	.
8E\	x 5	.	8g#/	.	8b/	.	.	.	.	.	.	.	4b\	-per	.	.
8E\J	.	.	8g#/J	.	8b/J	.	.	.	.	.	.	.	.	.	.	.
!LO:LB:g=original	!	!	!	!	!	!	!	!	!	!	!	!	!	!	!	!
=43	=43	=43	=43	=43	=43	=43	=43	=43	=43	=43	=43	=43	=43	=43	=43	=43
8E\L	6 4	.	8a/L	.	8cc#\L	.	.	.	.	.	.	.	(4cc#\	cae-	2.ryy	2.ryy
8E\	.	.	8a/	.	8cc#\	.	.	.	.	.	.	.	.	.	.	.
8B\	.	.	8a/	.	8dd#\	.	.	.	.	.	.	.	4dd#\)	.	.	.
8B\	.	.	8a/	.	8dd#\	.	.	.	.	.	.	.	.	.	.	.
8c#\	.	.	8g#/	.	8ee\	.	.	.	.	.	.	.	4ee\	-los	.	.
8c#\J	.	.	8g#/J	.	8ee\J	.	.	.	.	.	.	.	.	.	.	.
!	!	!	!LO:LB:g=original	!	!	!	!	!	!	!	!	!	!	!	!	!
=44	=44	=44	=44	=44	=44	=44	=44	=44	=44	=44	=44	=44	=44	=44	=44	=44
8D#\L	6	.	8dd#\L	.	8ff#\L	.	.	.	.	.	.	.	4ff#\	glo-	2.ryy	2.ryy
8BB\	.	.	8dd#\	.	8ff#\	.	.	.	.	.	.	.	.	.	.	.
8BB\	.	.	8ee\	.	8gg#\	.	.	.	.	.	.	.	4gg#\	-ri-	.	.
8BB\	.	.	8ee\	.	8gg#\	.	.	.	.	.	.	.	.	.	.	.
8BB\	.	.	8ff#\	.	8aa\	.	.	.	.	.	.	.	4aa\	-a	.	.
8BB\J	.	.	8ff#\J	.	8aa\J	.	.	.	.	.	.	.	.	.	.	.
!	!	!	!	!	!	!	!	!	!	!	!	!	!LO:LB:g=original	!	!	!
=45	=45	=45	=45	=45	=45	=45	=45	=45	=45	=45	=45	=45	=45	=45	=45	=45
*	*	*	*	*	*tuplet	*	*	*	*	*	*	*	*Xtuplet	*	*	*
!	!	!	!	!	!	!	!	!	!	!	!	!	!LO:N:vis=24	!	!	!
8E\L	.	.	8ee\L	.	12gg#\L	.	0.r	.	0.r;	.	0.r;	.	12gg#\L	e-	2.ryy	2.ryy
!	!	!	!	!	!	!	!	!	!	!	!	!	!LO:N:vis=24	!	!	!
.	.	.	.	.	12ff#\	.	.	.	.	.	.	.	12ff#\	.	.	.
16G#\L	.	.	8b\	.	.	.	.	.	.	.	.	.	.	.	.	.
!	!	!	!	!	!	!	!	!	!	!	!	!	!LO:N:vis=24	!	!	!
.	.	.	.	.	12ee\J	.	.	.	.	.	.	.	12ee\J	.	.	.
16F#\JJ	.	.	.	.	.	.	.	.	.	.	.	.	.	.	.	.
8G#\L	.	.	8b\	.	8ee\L	.	.	.	.	.	.	.	2ee\	-jus	.	.
8E\J	.	.	8g#\	.	8b\	.	.	.	.	.	.	.	.	.	.	.
4E\	.	.	8f#\	.	8a\	.	.	.	.	.	.	.	.	.	.	.
.	.	.	8e\J	.	8g#\J	.	.	.	.	.	.	.	.	.	.	.
=46	=46	=46	=46	=46	=46	=46	=46	=46	=46	=46	=46	=46	=46	=46	=46	=46
4r	.	.	4r	.	4r	.	.	.	.	.	.	.	4ee\	glo-	2.ryy	2.ryy
4r	.	.	4r	.	4r	.	.	.	.	.	.	.	4ee\	-ri-	.	.
8r	.	.	8r	.	8r	.	.	.	.	.	.	.	4ee\	-a	.	.
!	!	!	!	!LO:DY:a:t=f&colon;	!	!LO:DY:b:t=f&colon;	!	!	!	!	!	!	!	!	!	!
16E|\LL	.	.	16e/LL	f	16e/LL	f	.	.	.	.	.	.	.	.	.	.
16F#|\JJ	.	.	16f#/JJ	.	16f#/JJ	.	.	.	.	.	.	.	.	.	.	.
!	!	!	!	!	!LO:LB:g=original	!	!	!	!	!	!	!	!	!	!	!
=47	=47	=47	=47	=47	=47	=47	=47	=47	=47	=47	=47	=47	=47	=47	=47	=47
8G#|\L	.	.	8g#/L	.	8g#/L	.	.	.	.	.	.	.	2.ee\	e-	2.ryy	2.ryy
8E|\	.	.	8e/	.	8e/	.	.	.	.	.	.	.	.	.	.	.
8C#|\	.	.	8c#/	.	8c#/	.	.	.	.	.	.	.	.	.	.	.
!	!	!	!	!	!LO:SIC:v:o=8A/	!	!	!	!	!	!	!	!	!	!	!
8AA#X|\	.	.	8A#X/	.	8A#	.	.	.	.	.	.	.	.	.	.	.
8BB|\	.	.	8B/	.	8B/	.	.	.	.	.	.	.	.	.	.	.
8GG#|\J	.	.	8G#/J	.	8G#/J	.	.	.	.	.	.	.	.	.	.	.
=48	=48	=48	=48	=48	=48	=48	=48	=48	=48	=48	=48	=48	=48	=48	=48	=48
4AAn/	.	.	4An/	.	4An/	.	.	.	.	.	.	.	16ee\LL	.	2.ryy	2.ryy
.	.	.	.	.	.	.	.	.	.	.	.	.	16cc#\	.	.	.
.	.	.	.	.	.	.	.	.	.	.	.	.	16b\	.	.	.
.	.	.	.	.	.	.	.	.	.	.	.	.	16a\JJ	.	.	.
2BB;/	.	.	4B/	.	4B/	.	.	.	.	.	.	.	4g#;/	.	.	.
.	.	.	4r;	.	4r;	.	.	.	.	.	.	.	4f#/	.	.	.
!LO:LB:g=original	!	!	!	!	!	!	!	!	!	!	!	!	!	!	!	!
=49	=49	=49	=49	=49	=49	=49	=49	=49	=49	=49	=49	=49	=49	=49	=49	=49
!LO:TX:a:t=T&colon;	!	!	!	!	!	!LO:DY:a:t=f&colon;	!	!	!	!	!	!	!LO:TX:a:t=Tut.	!	!	!
4E\	.	.	4e/	.	4e/	f	4r	.	4r	.	4r	.	4e/	-jus	2.ryy	2.ryy
*	*	*	*	*	*	*	*	*	*2\right	*	*2\right	*	*	*	*	*
!	!	!	!	!	!	!	!LO:TX:a:t=T&colon;	!	!LO:TX:a:t=T&colon;	!	!	!	!	!	!	!
2C#/	.	.	2g#/	.	2ee\	.	2C#/	Quis	2c#\	Quis	2g#\	Quis	2ee\	quis	.	.
=50	=50	=50	=50	=50	=50	=50	=50	=50	=50	=50	=50	=50	=50	=50	=50	=50
*	*	*	*	*	*	*	*	*	*	*ij	*	*	*	*	*	*
4G#\	#	.	8r	.	8r	.	4G#\	quis	4B#X\	quis	4g#\	quis	4dd#\	.	2.ryy	2.ryy
.	.	.	16f#/LL	.	16dd#\LL	.	.	.	.	.	.	.	.	.	.	.
.	.	.	16e/JJ	.	16cc#\JJ	.	.	.	.	.	.	.	.	.	.	.
4r	.	.	8d#/L	.	8b#X\L	.	4r	.	4r	.	4r	.	4r	.	.	.
!	!	!	!	!	!LO:TX:t=P:problem=skreślona kreska taktowa	!	!	!	!	!	!	!	!	!	!	!
.	.	.	8f#/J	.	8dd#\J	.	.	.	.	.	.	.	.	.	.	.
4G#\	.	.	8r	.	8r	.	4d#\	quis	4B#\	quis	4g#\	quis	4ff#\	quis	.	.
*	*	*	*	*	*	*	*	*	*	*Xij	*	*	*	*	*	*
.	.	.	8dd#\	.	8ff#\	.	.	.	.	.	.	.	.	.	.	.
!	!	!	!LO:LB:g=original	!	!	!	!	!	!	!	!	!	!	!	!	!
=51	=51	=51	=51	=51	=51	=51	=51	=51	=51	=51	=51	=51	=51	=51	=51	=51
!	!	!	!	!	!LO:TX:t=P:problem=mixed beam	!	!	!	!	!	!	!	!	!	!	!
8r	#	.	8b#X\L	.	8g#/L	.	8r	.	8r	.	8r	.	8r	.	2.ryy	2.ryy
8G#\	6 4	.	8dd#\	.	8ff#\	.	8G#\	quis	8B#X\	quis	8d#\	quis	8ff#\	quis	.	.
4G#\	5 #	.	8cc#\	.	8ee\	.	8G#\	si-	8c#\	Si-	8g#\	si-	8ee\	si-	.	.
.	.	.	8b#X\	.	8dd#\	.	8G#\	-cut	8B#\	-cut	8g#\	-cut	8dd#\	-cut	.	.
!LO:TX:t=P:problem=mixed beam	!	!	!	!	!	!	!	!	!	!	!	!	!	!	!	!
8c#\L	.	.	8cc#\	.	8ee\	.	8c#\	Do-	8c#\	Do-	8g#\	Do-	8ee\	Do-	.	.
!	!	!	!	!	!	!	!LO:LB:g=original	!	!	!	!	!	!	!	!	!
8C#/J	.	.	8g#\J	.	8cc#\J	.	8C#/	-mi-	8e\	-mi-	8g#\	-mi-	8cc#\	-mi-	.	.
!	!	!	!	!	!	!	!	!	!	!	!	!	!LO:LB:g=original	!	!	!
=52	=52	=52	=52	=52	=52	=52	=52	=52	=52	=52	=52	=52	=52	=52	=52	=52
4G#\	#	.	8g#/	.	8b#X\L	.	4G#\	-nus	4d#\	-nus	4g#\	-nus	4b\	-nus	2.ryy	2.ryy
.	.	.	4g#/	.	8g#\J	.	.	.	.	.	.	.	.	.	.	.
!	!	!	!	!	!	!	!	!	!LO:LB:g=original	!	!	!	!	!	!	!
4B#X\	.	.	.	.	4.dd#\	.	4B#X\	De-	4d#\	De-	4g#\	De-	4dd#\	De-	.	.
.	.	.	4g#/	.	.	.	.	.	.	.	.	.	.	.	.	.
!	!	!	!	!	!	!	!LO:TX:t=P:problem=brak kreski taktowej	!	!	!	!	!	!	!	!	!
4G#\	.	.	.	.	.	.	4G#\	-us	4B#X\	-us	4g#\	-us	4dd#\	-us	.	.
.	.	.	8b#X\	.	16cc#\LL	.	.	.	.	.	.	.	.	.	.	.
.	.	.	.	.	16dd#\JJ	.	.	.	.	.	.	.	.	.	.	.
=53	=53	=53	=53	=53	=53	=53	=53	=53	=53	=53	=53	=53	=53	=53	=53	=53
4c#\	.	.	4cc#\	.	4ee\	.	8c#\	nos-	8c#\	Nos-	8g#\	nos-	8ee\	nos-	2.ryy	2.ryy
.	.	.	.	.	.	.	8C#/	-ter	8e\	-ter	8g#\	-ter	8cc#\	-ter	.	.
!	!	!	!	!LO:DY:t=p&colon;	!	!LO:DY:a:t=p&colon;	!	!	!	!	!	!	!	!	!	!
4r	.	.	4c#/	p	4.ee#X\	p	4r	.	4r	.	4r	.	4ee#X\	qui	.	.
4r	.	.	4B/	.	.	.	4r	.	4r	.	4r	.	4ee#\	in	.	.
.	.	.	.	.	16dd#\LL	.	.	.	.	.	.	.	.	.	.	.
.	.	.	.	.	16ee#\JJ	.	.	.	.	.	.	.	.	.	.	.
!	!	!	!	!	!LO:LB:g=original	!	!	!	!	!	!LO:LB:g=original	!	!	!	!	!
=54	=54	=54	=54	=54	=54	=54	=54	=54	=54	=54	=54	=54	=54	=54	=54	=54
!	!	!	!	!	!LO:TX:t=P:problem=mixed beam	!	!LO:TX:a:t=1	!	!	!	!	!	!	!	!	!
2.r	.	.	4A/	.	8ff#\L	.	2.r	.	2.r	.	2.r	.	2ff#\	al-	2.ryy	2.ryy
.	.	.	.	.	8f#/J	.	.	.	.	.	.	.	.	.	.	.
.	.	.	4a/	.	4ff#\	.	.	.	.	.	.	.	.	.	.	.
.	.	.	4e#X/	.	4gg#\	.	.	.	.	.	.	.	4gg#\	-tis	.	.
=55	=55	=55	=55	=55	=55	=55	=55	=55	=55	=55	=55	=55	=55	=55	=55	=55
4r	.	.	8f#/L	.	8aa\L	.	4r	.	4r	.	4r	.	8aa\	ha-	2.ryy	2.ryy
.	.	.	8c#/	.	8gg#\J	.	.	.	.	.	.	.	8gg#\	-bi-	.	.
4r	5	.	8f#/	.	4ff#\	.	4r	.	4r	.	4r	.	4ff#\	-tat	.	.
!	!	!	!	!LO:DY:b:t=f&colon;	!	!	!	!	!	!	!	!	!	!	!	!
.	n 3	.	8a/	f	.	.	.	.	.	.	.	.	.	.	.	.
!	!	!	!	!	!LO:TX:a:t=f	!	!	!	!	!	!	!	!LO:TX:a:t=Tutti	!	!	!
4F#\	5 2	.	8a/	.	8ff#\L	.	8F#\	et	8c#\	(et)	8a\	et	8ff#\	et	.	.
!	!	!	!	!	!LO:TX:t=P:problem=zapis poprawiany	!	!	!	!	!	!	!	!	!	!	!
!	!	!	!	!	!LO:TX:a:t=d	!	!	!	!	!	!	!	!	!	!	!
.	.	.	8b/J	.	8ddn\J	.	8F#\	hu-	8B\	hu-	8b\	hu-	8ddn\	hu-	.	.
=56	=56	=56	=56	=56	=56	=56	=56	=56	=56	=56	=56	=56	=56	=56	=56	=56
2.E#X\	7	.	4b/	.	4dd#\	.	4.E#X\	-mi-	4.B\	-mi-	4b\	-mi-	4dd#\	-mi-	2.ryy	2.ryy
.	6	.	4a/	.	4cc#\	.	.	.	.	.	4a\	-li-	8cc#\	-li-	.	.
.	5	.	.	.	.	.	8E#\	-li-	8c#\	-li-	.	.	8cc#\	.	.	.
.	.	.	4cc#\	.	4gg#\	.	4E#\	-a	4c#\	-a	4g#\	-a	4b\	-a	.	.
=57	=57	=57	=57	=57	=57	=57	=57	=57	=57	=57	=57	=57	=57	=57	=57	=57
2F#\	n	.	8cc#\L	.	8aa\L	.	8F#\	re-	8c#\	res-	8f#\	res-	8a\	re-	2.ryy	2.ryy
.	.	.	8b\J	.	8ee#X\J	.	8F#\	-spi-	8c#\	-pi-	8g#\	-pi-	8b\	-spi-	.	.
.	.	.	4a\	.	4ff#\	.	4F#\	-cit	4c#\	-cit	4a\	-cit	4cc#\	-cit	.	.
!	!	!	!	!	!	!	!	!	!	!	!	!	!LO:LB:g=original	!	!	!
4F#\	6 4	.	4b\	.	4ddn\	.	4F#\	in	8c#\L	in	8a\L	in	8ff#\L	in	.	.
.	.	.	.	.	.	.	.	.	8dn\J	.	8b\J	.	8dd#\J	.	.	.
!LO:LB:g=original	!	!	!	!	!	!	!	!	!LO:LB:g=original	!	!	!	!	!	!	!
=58	=58	=58	=58	=58	=58	=58	=58	=58	=58	=58	=58	=58	=58	=58	=58	=58
2.E#X\	7	.	4b\	.	4dd#\	.	4E#X\	coe-	4B\	coe-	4b\	coe-	4dd#\	coe-	2.ryy	2.ryy
.	6 4	.	4a\	.	4cc#\	.	4E#\	-lo	4c#\	-lo-	4a\	-lo	4cc#\	-lo	.	.
!	!	!	!	!	!	!	!LO:LB:g=original	!	!	!	!	!	!	!	!	!
.	5 3	.	4g#\	.	4b\	.	8E#\	et	8c#\	-(et)	8g#\	et	8b\	et	.	.
.	.	.	.	.	.	.	8E#\	in	8c#\	in	8g#\	in	8b\	in	.	.
!	!	!	!LO:LB:g=original	!	!	!	!	!	!	!	!	!	!	!	!	!
=59	=59	=59	=59	=59	=59	=59	=59	=59	=59	=59	=59	=59	=59	=59	=59	=59
8F#\L	.	.	8f#/L	.	8a/L	.	8F#\L	ter-	4c#\	ter-	8f#\L	ter-	8a\L	ter-	2.ryy	2.ryy
8D#\J	#	.	8e#X/J	.	8g#/J	.	8C#\J	.	.	.	16e\L	.	8g#\J	.	.	.
.	.	.	.	.	.	.	.	.	.	.	16a\JJ	.	.	.	.	.
4FF#/	.	.	4f#/	.	4f#/	.	4FF#/	-ra	4c#\	-ra	4a\	-ra	4f#\	-ra	.	.
4Dn\	.	.	4ff#\	.	4ff#\	.	8.D#/	Sus-	8dn\	Sus-	8a\	Sus-	8ff#\	sus-	.	.
.	.	.	.	.	.	.	.	.	8d\	-ci-	8a\	-ci-	8ff#\	-ci-	.	.
.	.	.	.	.	.	.	16D#/	-ci-	.	.	.	.	.	.	.	.
=60	=60	=60	=60	=60	=60	=60	=60	=60	=60	=60	=60	=60	=60	=60	=60	=60
8C#/L	6	.	8een\L	.	8een\L	.	8C#/	-tans	8A\	-tans	8a\	-tans	8ee\	-tans	2.ryy	2.ryy
8D#/J	.	.	8ff#\J	.	8ff#\J	.	8Dn/	a	8A\	a	8a\	a	8ff#\	a	.	.
2G#\	6	.	4b\	.	4ee\	.	4G#\	ter-	4e\	ter-	4b\	ter-	4ee\	ter-	.	.
.	5	.	4b\	.	4ddn\	.	4GG#/	-ra	4E/	-ra	4b\	-ra	4ddn\	-ra	.	.
!	!	!	!	!	!	!	!	!	!	!	!LO:LB:g=original	!	!	!	!	!
=61	=61	=61	=61	=61	=61	=61	=61	=61	=61	=61	=61	=61	=61	=61	=61	=61
4A\	9 4	.	4b\	.	4dd#\	.	8.AA/	in-	8.E/	in-	8.b\	in-	8.dd#\	i-	2.ryy	2.ryy
.	.	.	.	.	.	.	16AA/	-o-	16E/	-o-	16a\	-o-	16cc#\	-no-	.	.
4AA/	8 3	.	4a\	.	4cc#\	.	4AA/	-pem	4E/	-pem	4a\	-pem	4cc#\	-pem	.	.
!	!	!	!	!	!	!LO:DY:b:t=p&colon;	!	!	!	!	!	!	!	!	!	!
8r	.	.	4a\	.	8ee\L	p	8AA/	et	8e\	(et)	8a\	et	8cc#\	et	.	.
8C#/	x 6	.	.	.	8aa\J	.	8C#/	de	8A\	de	8a\	de	8ee\	de	.	.
!	!	!	!	!	!	!	!	!	!LO:LB:g=original	!	!	!	!	!	!	!
=62	=62	=62	=62	=62	=62	=62	=62	=62	=62	=62	=62	=62	=62	=62	=62	=62
4Dn\	9 3	.	4a\	.	8ee\L	.	8Dn\	ster-	8A/	ster-	8a\	ster-	8ee\	ster-	2.ryy	2.ryy
.	.	.	.	.	16ddn\L	.	16D\	-co-	16A/	-co-	16a\	-co-	16ddn\	-co-	.	.
.	.	.	.	.	16cc#\JJ	.	16D\	-re	16A/	-re	16a\	-re	16cc#\	-re	.	.
!	!	!	!LO:TX:t=P:problem=mixed beam	!	!	!	!	!	!	!	!	!	!LO:LB:g=original	!	!	!
2D#X\	6	.	8f#/L	.	4b\	.	8D#X\	e-	8B\	e-	8f#\	e-	8b\	e-	.	.
.	.	.	8ff#\	.	.	.	8D#\	-ri-	8B\	-ri-	8f#\	-ri-	8b\	-ri-	.	.
!	!	!	!	!	!	!	!LO:LB:g=original	!	!	!	!	!	!	!	!	!
.	5	.	8f#/	.	4a\	.	4D#\	-gens	4B\	-gens	4f#\	-gens	4a\	-gens	.	.
.	.	.	8ff#\J	.	.	.	.	.	.	.	.	.	.	.	.	.
!	!	!	!	!	!LO:PB:g=original	!	!	!	!	!	!	!	!	!	!	!
=63	=63	=63	=63	=63	=63	=63	=63	=63	=63	=63	=63	=63	=63	=63	=63	=63
4E\	4	.	8f#/L	.	8a\L	.	8E\	pau-	8B\	Pau-	8f#\	Pau-	8a\	pau-	2.ryy	2.ryy
.	3	.	8e/J	.	8g#\J	.	8E\	-pe-	8B\	-pe-	8e\	-pe-	8g#\	-pe-	.	.
4EE/	.	.	4g#/	.	16ee\LL	.	4E\	-rem	4B\	-rem	4e\	-rem	4g#\	-rem	.	.
.	.	.	.	.	16b\	.	.	.	.	.	.	.	.	.	.	.
.	.	.	.	.	16g#\	.	.	.	.	.	.	.	.	.	.	.
.	.	.	.	.	16b\JJ	.	.	.	.	.	.	.	.	.	.	.
4r	.	.	8e/L	.	16e\LL	.	4r	.	4r	.	4r	.	4r	.	.	.
.	.	.	.	.	16g#\	.	.	.	.	.	.	.	.	.	.	.
.	.	.	16g#/L	.	16b\	.	.	.	.	.	.	.	.	.	.	.
.	.	.	16a/JJ	.	16cc#\JJ	.	.	.	.	.	.	.	.	.	.	.
=64	=64	=64	=64	=64	=64	=64	=64	=64	=64	=64	=64	=64	=64	=64	=64	=64
0.r	.	.	8b/L	.	8ddn\	.	0.r	.	0.r	.	0.r	.	4.dd#\	ut	2.ryy	2.ryy
.	.	.	8a/	.	4bb\	.	.	.	.	.	.	.	.	.	.	.
.	.	.	8g#/	.	.	.	.	.	.	.	.	.	.	.	.	.
.	.	.	8f#/	.	4dd\	.	.	.	.	.	.	.	8dd#\	col-	.	.
.	.	.	8e/	.	.	.	.	.	.	.	.	.	8dd#\	-lo-	.	.
.	.	.	8G#/J	.	8dd\	.	.	.	.	.	.	.	8dd#\	-cet	.	.
=65	=65	=65	=65	=65	=65	=65	=65	=65	=65	=65	=65	=65	=65	=65	=65	=65
*	*	*	*	*	*^	*	*	*	*	*	*	*	*	*	*	*
.	.	.	4A/	.	8ryy	8ddn\L	.	.	.	.	.	.	.	8dd#\	e-	2.ryy	2.ryy
.	.	.	.	.	8ryy	8cc#\J	.	.	.	.	.	.	.	8cc#\	-um	.	.
.	.	.	8r	.	4.ff#/	4.ddn\	.	.	.	.	.	.	.	4.ff#\	cum	.	.
.	.	.	16dn/LL	.	.	.	.	.	.	.	.	.	.	.	.	.	.
.	.	.	16e/JJ	.	.	.	.	.	.	.	.	.	.	.	.	.	.
.	.	.	8f#/L	.	.	.	.	.	.	.	.	.	.	.	.	.	.
.	.	.	8g#/J	.	8ff#/	8dd\	.	.	.	.	.	.	.	8ff#\	prin-	.	.
!	!	!	!LO:LB:g=original	!	!	!	!	!	!	!	!	!	!	!	!	!	!
=66	=66	=66	=66	=66	=66	=66	=66	=66	=66	=66	=66	=66	=66	=66	=66	=66	=66
.	.	.	4a/	.	8ff#/L	8ddn\L	.	.	.	.	.	.	.	8ff#\	-ci-	2.ryy	2.ryy
.	.	.	.	.	8ee/J	8cc#\J	.	.	.	.	.	.	.	16ee\LL	-pi-	.	.
.	.	.	.	.	.	.	.	.	.	.	.	.	.	16ddn\JJ	.	.	.
.	.	.	8A/	.	8dd\L	2ryy	.	.	.	.	.	.	.	4ee\	-bus	.	.
.	.	.	4g#/	.	8b\	.	.	.	.	.	.	.	.	.	.	.	.
!	!	!	!	!	!	!	!	!	!	!	!	!	!	!LO:LB:g=original	!	!	!
.	.	.	.	.	8e\	.	.	.	.	.	.	.	.	8dd\	[cum	.	.
.	.	.	8e/	.	8ddn\J	.	.	.	.	.	.	.	.	8dd\	prin-	.	.
*	*	*	*	*	*v	*v	*	*	*	*	*	*	*	*	*	*	*
=67	=67	=67	=67	=67	=67	=67	=67	=67	=67	=67	=67	=67	=67	=67	=67	=67
.	.	.	8A/L	.	8dd#\L	.	.	.	.	.	.	.	8dd#\	-ci-	2.ryy	2.ryy
.	.	.	8e/J	.	16cc#\L	.	.	.	.	.	.	.	(16cc#\LL	-pi-	.	.
.	.	.	.	.	16b\JJ	.	.	.	.	.	.	.	16b\JJ)	.	.	.
.	.	.	4A/	.	4cc#\	.	.	.	.	.	.	.	4cc#\	-bus]	.	.
.	.	.	4c#/	.	16ee\LL	.	.	.	.	.	.	.	16ee\LL	po-	.	.
.	.	.	.	.	16cc#\	.	.	.	.	.	.	.	16cc#\	.	.	.
.	.	.	.	.	16b\	.	.	.	.	.	.	.	16b\	.	.	.
.	.	.	.	.	16a\JJ	.	.	.	.	.	.	.	16a\JJ	.	.	.
=68	=68	=68	=68	=68	=68	=68	=68	=68	=68	=68	=68	=68	=68	=68	=68	=68
1.r	.	.	2.dn/	.	8g#/L	.	1.r	.	1.r	.	1.r	.	16g#\LL	.	2.ryy	2.ryy
.	.	.	.	.	.	.	.	.	.	.	.	.	16a\	.	.	.
.	.	.	.	.	8e/J	.	.	.	.	.	.	.	16b\	.	.	.
.	.	.	.	.	.	.	.	.	.	.	.	.	16cc#\JJ	.	.	.
.	.	.	.	.	2ff#\	.	.	.	.	.	.	.	16ddn\LL	.	.	.
.	.	.	.	.	.	.	.	.	.	.	.	.	16ee\	.	.	.
.	.	.	.	.	.	.	.	.	.	.	.	.	16ff#\	.	.	.
.	.	.	.	.	.	.	.	.	.	.	.	.	16ee\JJ	.	.	.
.	.	.	.	.	.	.	.	.	.	.	.	.	16dd\LL	.	.	.
.	.	.	.	.	.	.	.	.	.	.	.	.	16cc#\	.	.	.
.	.	.	.	.	.	.	.	.	.	.	.	.	16b\	.	.	.
.	.	.	.	.	.	.	.	.	.	.	.	.	16a\JJ	.	.	.
=69	=69	=69	=69	=69	=69	=69	=69	=69	=69	=69	=69	=69	=69	=69	=69	=69
.	.	.	8dn/L	.	8.ee\L	.	.	.	.	.	.	.	8g#\	.	2.ryy	2.ryy
.	.	.	16c#/L	.	.	.	.	.	.	.	.	.	16a\	-pu-	.	.
.	.	.	16d/JJ	.	16dd#\Jk	.	.	.	.	.	.	.	16ddn\	-li	.	.
.	.	.	4e/	.	4cc#\	.	.	.	.	.	.	.	(4cc#\	su-	.	.
!	!	!	!	!	!LO:TX:a:t=t&colon;	!	!	!	!	!	!	!	!	!	!	!
.	.	.	4e/	.	4b\	.	.	.	.	.	.	.	4b\)	.	.	.
!	!	!	!	!	!LO:LB:g=original	!	!	!	!	!	!	!	!	!	!	!
=70	=70	=70	=70	=70	=70	=70	=70	=70	=70	=70	=70	=70	=70	=70	=70	=70
!LO:TX:a:t=T&colon;	!	!	!	!	!	!	!	!	!	!	!	!	!	!	!	!
8r	.	.	8A/L	.	4a\	.	8r	.	8r	.	8r	.	4a\	-i	2.ryy	2.ryy
!	!	!	!LO:TX:t=P:problem=# below	!	!	!	!	!	!	!	!	!	!	!	!	!
8C#\L	.	.	8c#X/	.	.	.	8C#\	qui	8e\	Qui	8c#\	Qui	.	.	.	.
!	!	!	!	!LO:DY:a:t=f&colon;	!	!	!	!	!	!	!	!	!	!	!	!
8G#\	#	.	8B/	f	4r	.	8G#\	ha-	8d#\	ha-	8B#X\	ha-	4r	.	.	.
8E\	6	.	8c#/	.	.	.	8E\	-bi-	8c#\	-bi-	8c#\	-bi-	.	.	.	.
8BB#X\	.	.	8d#/	.	4r	.	8BB#X/	-ta-	8G#/	-ta-	8d#X\	-ta-	4r	.	.	.
8C#\J	.	.	8e/J	.	.	.	8C#/	-re	8G#/	-re	8e\	-re	.	.	.	.
!LO:LB:g=original	!	!	!	!	!	!	!	!	!LO:LB:g=original	!	!LO:LB:g=original	!	!LO:LB:g=original	!	!	!
=71	=71	=71	=71	=71	=71	=71	=71	=71	=71	=71	=71	=71	=71	=71	=71	=71
!	!	!	!	!	!LO:TX:a:t=1	!	!	!	!	!	!	!	!LO:TX:a:t=1	!	!	!
8D#\L	6\	.	8f#/L	.	2.r	.	8D#\	Fa-	8B#X\	fa-	8f#\	fa-	2.r	.	2.ryy	2.ryy
8G#\	#	.	8d#/	.	.	.	8G#\	-cit	8B#\	-cit	8d#\	-cit	.	.	.	.
8C#\	.	.	8e/	.	.	.	8C#\L	ste-	8c#\	ste-	8e\	ste-	.	.	.	.
8E\	6	.	8c#/	.	.	.	8E\	-ri-	8G#/	-ri-	8c#\	-ri-	.	.	.	.
8F#\	6	.	8d#/	.	.	.	8F#\	-lem	8A/	-lem	8d#\	-lem	.	.	.	.
8G#\J	#	.	8B#X/J	.	.	.	8G#\J	in	8F#/	in	8B#X\	in	.	.	.	.
=72	=72	=72	=72	=72	=72	=72	=72	=72	=72	=72	=72	=72	=72	=72	=72	=72
8E\L	6	.	8c#/L	.	4r	.	8E\L	do-	4G#/	do-	8c#\L	Do-	4r	.	2.ryy	2.ryy
8D#\J	6\	.	8B#X/J	.	.	.	8D#\J	.	.	.	8B#X\J	.	.	.	.	.
4C#/	.	.	4c#/	.	4r	.	4C#/	-mo	4G#/	-mo	4c#\	-mo	4r	.	.	.
!	!	!	!	!	!	!LO:DY:b:t=f&colon;	!	!	!	!	!	!	!	!	!	!
4r	.	.	4r	.	4ee\	f	4r	.	4r	.	4r	.	8ee\	ma-	.	.
.	.	.	.	.	.	.	.	.	.	.	.	.	8ee\	-trem	.	.
!	!	!	!LO:PB:g=original	!	!	!	!	!	!	!	!	!	!	!	!	!
=73	=73	=73	=73	=73	=73	=73	=73	=73	=73	=73	=73	=73	=73	=73	=73	=73
4r	.	.	4r	.	8ff#\L	.	4r	.	4r	.	4r	.	8ff#\	Fi-	2.ryy	2.ryy
.	.	.	.	.	8dd#\J	.	.	.	.	.	.	.	8dd#\	-li-	.	.
!	!	!	!	!	!	!	!LO:LB:g=original	!	!	!	!	!	!	!	!	!
*	*	*	*	*	*	*	*2\right	*	*	*	*	*	*	*	*	*
2D#\	6	.	2ff#\	.	4b\	.	2D#\	lae-	2B\	Lae-	2f#\	lae-	4b\	-o-	.	.
.	5	.	.	.	4a\	.	.	.	.	.	.	.	8a\	-rum	.	.
.	.	.	.	.	.	.	.	.	.	.	.	.	8a\	lae-	.	.
=74	=74	=74	=74	=74	=74	=74	=74	=74	=74	=74	=74	=74	=74	=74	=74	=74
4E\	9 4	.	4ff#\	.	4a/	.	4E\	-tan-	4B\	-tan-	4f#\	-tan-	4a\	-tan-	2.ryy	2.ryy
4E\	8 3	.	4ee\	.	4g#/	.	4E\	-tem	4B\	-tem	4e\	-tem	4g#\	-tem	.	.
4r	.	.	8ff#\L	.	16d#X/LL	.	4r	.	4r	.	4r	.	4r	.	.	.
.	.	.	.	.	16a/	.	.	.	.	.	.	.	.	.	.	.
.	.	.	16ee\L	.	16g#/	.	.	.	.	.	.	.	.	.	.	.
.	.	.	16dd#\JJ	.	16f#/JJ	.	.	.	.	.	.	.	.	.	.	.
=75	=75	=75	=75	=75	=75	=75	=75	=75	=75	=75	=75	=75	=75	=75	=75	=75
!LO:TX:a:t=S&colon;	!	!LO:DY:b:t=p&colon;	!LO:TX:t=P:problem=mixed beam	!	!	!	!LO:TX:a:t=6	!	!	!	!	!	!LO:TX:a:t=S.	!	!	!
!	!	!	!	!	!	!LO:DY:t=p&colon;	!	!	!	!	!	!	!	!	!	!
4E\	.	p	8ee\L	.	8e/L	p	0.r	.	0.r	.	0.r	.	4b\	Glo-	2.ryy	2.ryy
.	.	.	8g#/	.	8b/	.	.	.	.	.	.	.	.	.	.	.
!	!	!	!	!LO:DY:a:t=p&colon;	!	!	!	!	!	!	!	!	!	!	!	!
4r	.	.	8f#/	p	8a/	.	.	.	.	.	.	.	8a\L	-ri-	.	.
.	.	.	8e/	.	8g#/	.	.	.	.	.	.	.	8g#\J	.	.	.
4r	.	.	8d#/	.	8f#/	.	.	.	.	.	.	.	8f#/L	-a	.	.
.	.	.	8e/J	.	8e/J	.	.	.	.	.	.	.	8e/J	.	.	.
=76	=76	=76	=76	=76	=76	=76	=76	=76	=76	=76	=76	=76	=76	=76	=76	=76
8E\L	8 6	.	8cc#\L	.	4ee\	.	.	.	.	.	.	.	4ee\	Pa-	2.ryy	2.ryy
8E\	.	.	8cc#\	.	.	.	.	.	.	.	.	.	.	.	.	.
8E\	x 7	.	8b\	.	4dd#\	.	.	.	.	.	.	.	4dd#\	-tri	.	.
8E\	.	.	8b\	.	.	.	.	.	.	.	.	.	.	.	.	.
8E\	.	.	8a\	.	4cc#\	.	.	.	.	.	.	.	4cc#\	et	.	.
8E\J	6 4	.	8a\J	.	.	.	.	.	.	.	.	.	.	.	.	.
=77	=77	=77	=77	=77	=77	=77	=77	=77	=77	=77	=77	=77	=77	=77	=77	=77
8E\L	6 4	.	8a/L	.	8cc#\L	.	.	.	.	.	.	.	8cc#\	Fi-	2.ryy	2.ryy
8E\	9 3	.	8g#/J	.	8b\J	.	.	.	.	.	.	.	8b\	-li-	.	.
8E\	.	.	4g#/	.	4b\	.	.	.	.	.	.	.	4b\	-o	.	.
8E\	.	.	.	.	.	.	.	.	.	.	.	.	.	.	.	.
!	!	!	!	!	!	!	!	!	!	!	!	!	!LO:LB:g=original	!	!	!
8E\	.	.	4g#/	.	4ee\	.	.	.	.	.	.	.	8ee\	et	.	.
8E\J	.	.	.	.	.	.	.	.	.	.	.	.	8ee\	Spi-	.	.
!LO:PB:g=original	!	!	!	!	!	!	!	!	!	!	!	!	!	!	!	!
=78	=78	=78	=78	=78	=78	=78	=78	=78	=78	=78	=78	=78	=78	=78	=78	=78
2D#\	6	.	8B/L	.	12ff#\L	.	.	.	.	.	.	.	8ff#\L	-ri-	2.ryy	2.ryy
.	.	.	.	.	12dd#\	.	.	.	.	.	.	.	.	.	.	.
.	5	.	8f#/J	.	.	.	.	.	.	.	.	.	8dd#\J	.	.	.
.	.	.	.	.	12b\J	.	.	.	.	.	.	.	.	.	.	.
.	.	.	4f#/	.	4a\	.	.	.	.	.	.	.	4a\	-tu-	.	.
4E\	.	.	4e/	.	4g#\	.	.	.	.	.	.	.	4g#\	-i	.	.
!	!	!	!	!	!LO:LB:g=original	!	!	!	!	!	!	!	!	!	!	!
=79	=79	=79	=79	=79	=79	=79	=79	=79	=79	=79	=79	=79	=79	=79	=79	=79
4B\	6 4	.	4e/	.	4g#/	.	1.r	.	1.r	.	1.r	.	4g#\	san-	2.ryy	2.ryy
.	5 3	.	.	.	.	.	.	.	.	.	.	.	.	.	.	.
4BB/	.	.	4d#/	.	4f#/	.	.	.	.	.	.	.	4f#\	-cto	.	.
4r	.	.	4r	.	4b\	.	.	.	.	.	.	.	8b\	sunt	.	.
.	.	.	.	.	.	.	.	.	.	.	.	.	8b\	.	.	.
!	!	!	!LO:LB:g=original	!	!	!	!	!	!	!	!	!	!	!	!	!
=80	=80	=80	=80	=80	=80	=80	=80	=80	=80	=80	=80	=80	=80	=80	=80	=80
4E\	#4 2	.	8c#/L	.	12a#X\L	.	.	.	.	.	.	.	12a#X\L	e-	2.ryy	2.ryy
.	.	.	.	.	12b\	.	.	.	.	.	.	.	12b\	.	.	.
.	.	.	8f#/J	.	.	.	.	.	.	.	.	.	.	.	.	.
.	.	.	.	.	12cc#\J	.	.	.	.	.	.	.	12cc#\J	.	.	.
4D#\	x 6	.	4f#/	.	4b\	.	.	.	.	.	.	.	4b\	-rat	.	.
4r	.	.	8g#/L	.	8ee\L	.	.	.	.	.	.	.	8ee\	in	.	.
.	.	.	8e/J	.	8cc#\J	.	.	.	.	.	.	.	8cc#\	prin-	.	.
=81	=81	=81	=81	=81	=81	=81	=81	=81	=81	=81	=81	=81	=81	=81	=81	=81
!	!	!	!	!	!	!	!	!	!	!	!	!	!LO:TX:t=P:problem=zapis niejednoznaczny	!	!	!
4E\	#4 2	.	8c#/L	.	8a#X\L	.	4r	.	4r	.	4r	.	8a#X\	-ci-	2.ryy	2.ryy
!	!	!	!	!LO:DY:a:t=f&colon;	!	!	!	!	!	!	!	!	!	!	!	!
.	.	.	8f#/J	.	8b\	.	.	.	.	.	.	.	8b\	-pi-	.	.
!	!	!	!LO:TX:t=P:problem=mixed beam	!	!	!	!	!	!	!	!	!	!	!	!	!
8D#\L	6	.	8f#/L	.	8b\	.	8r	.	8r	.	8r	.	8b\	-o	.	.
!LO:TX:a:t=T&colon;	!	!	!	!	!	!	!	!	!	!	!	!	!	!	!	!
8BB\	7	.	8ff#\	.	8an\	.	8B\	et	8d#\	(et)	8f#\	et	8an\	et	.	.
!	!	!	!	!	!	!LO:DY:t=f&colon;	!	!	!	!	!	!	!	!	!	!
8BB\	.	.	8an/	.	8ff#\	f	8B\	nunc	8d#\	nunc	8f#\	nunc	8a\	nunc	.	.
8BB\J	.	.	8ff#\J	.	8a\J	.	8B\	et	8d#\	(et)	8f#\	et	8a\	et	.	.
!	!	!	!	!	!	!	!	!	!LO:LB:g=original	!	!	!	!LO:LB:g=original	!	!	!
=82	=82	=82	=82	=82	=82	=82	=82	=82	=82	=82	=82	=82	=82	=82	=82	=82
8E\L	9 4	.	8ff#\L	.	8a/L	.	8E\	sem-	8B\	sem-	8f#\	sem-	8a\	sem-	2.ryy	2.ryy
8E\	8 3	.	8ee\J	.	8g#/J	.	8E\	-pter	8B\	-ter	8e\	-per	8g#\	-per	.	.
!	!	!	!	!	!	!	!	!	!	!	!LO:LB:g=original	!	!	!	!	!
8E\	6 4	.	4a/	.	4cc#\	.	8E\	et	8e\	(et)	8a\	et	8cc#\	et	.	.
8E\	.	.	.	.	.	.	8E\	in	8e\	in	8a\	in	8cc#\	in	.	.
8E\	x 5	.	4g#/	.	4b\	.	8E\	sae-	8e\	Sae-	16a\	Sae-	16cc#\	sae-	.	.
.	.	.	.	.	.	.	.	.	.	.	16g#\	-cu-	16b\	-cu-	.	.
8E\J	.	.	.	.	.	.	16E\	-cu-	16e\	-cu-	8g#\	-la	8b\	-la	.	.
.	.	.	.	.	.	.	16E\	-la	16e\	-la	.	.	.	.	.	.
=83	=83	=83	=83	=83	=83	=83	=83	=83	=83	=83	=83	=83	=83	=83	=83	=83
8E\L	.	.	8g#/	.	8ee\	.	8E\	sae-	8B\	Sae-	8g#\	Sae-	8ee\	sae-	2.ryy	2.ryy
8E\J	.	.	4g#/	.	4ee\	.	8E\	-cu-	8c#\	-cu-	8g#\	-cu-	8ee\	-cu-	.	.
4B\	6 4	.	.	.	.	.	8B\	-lo-	8B\	-lo-	8g#\	-lo-	8ee\	-lo-	.	.
!	!	!	!	!	!	!	!	!	!	!	!	!	!LO:TX:t=P:problem=zapis poprawiany	!	!	!
!	!	!	!	!	!	!	!	!	!	!	!	!	!LO:TX:a:t=d	!	!	!
.	5 3	.	8f#/	.	8dd#\	.	8B\	-rum	8B\	-rum	8f#\	-rum	8dd#\	-rum	.	.
8G#\L	6	.	8b\L	.	8ee\L	.	8G#\L	a-	4e\	A-	8b\L	a-	8ee\L	a-	.	.
8A\J	.	.	8cc#\J	.	8aa\J	.	8A\J	.	.	.	8a\J	.	8cc#\J	.	.	.
!	!	!	!	!	!	!	!LO:LB:g=original	!	!	!	!	!	!	!	!	!
=84	=84	=84	=84	=84	=84	=84	=84	=84	=84	=84	=84	=84	=84	=84	=84	=84
8B\L	6 4	.	8b\L	.	8gg#\L	.	8B\L	.	4e\	.	8g#\L	.	8b\L	.	2.ryy	2.ryy
8c#\J	6	.	8a\J	.	8ff#\J	.	8c#\J	.	.	.	8f#\J	.	8a\J	.	.	.
4B\	6 4	.	4g#/	.	4ee\	.	4B\	.	2B\	.	4e\	.	4g#\	.	.	.
4BB/	5 3	.	4f#/	.	4dd#\	.	4BB/	.	.	.	4d#\	.	4f#\	.	.	.
!LO:LB:g=original	!	!	!	!	!	!	!	!	!	!	!	!	!	!	!	!
=85	=85	=85	=85	=85	=85	=85	=85	=85	=85	=85	=85	=85	=85	=85	=85	=85
4E\	.	.	8e/L	.	8e/L	.	4E\	-men	4B\	-men	4e\	-men	4e/	-men	2.ryy	2.ryy
.	.	.	8g#/J	.	8b/J	.	.	.	.	.	.	.	.	.	.	.
4r	.	.	8.f#/L	.	16aa\LL	.	4r	.	4r	.	4r	.	4r	.	.	.
.	.	.	.	.	16ff#\	.	.	.	.	.	.	.	.	.	.	.
.	.	.	.	.	16dd#\	.	.	.	.	.	.	.	.	.	.	.
.	.	.	16d#/K	.	16b\JJ	.	.	.	.	.	.	.	.	.	.	.
8r	.	.	8.B/	.	16aa\LL	.	8r	.	8r	.	8r	.	8r	.	.	.
.	.	.	.	.	16ff#\	.	.	.	.	.	.	.	.	.	.	.
!	!	!	!	!	!	!	!	!	!	!	!	!	!LO:TX:a:t==vi	!	!	!
8BB/	.	.	.	.	16dd#\	.	8BB/	a-	8B\	a-	8f#\	a-	8a\	a-	.	.
.	.	.	16d#/Jk	.	16b\JJ	.	.	.	.	.	.	.	.	.	.	.
!	!	!	!	!	!LO:LB:g=original	!	!	!	!	!	!	!	!	!	!	!
=86	=86	=86	=86	=86	=86	=86	=86	=86	=86	=86	=86	=86	=86	=86	=86	=86
!	!	!	!	!	!	!	!	!	!	!	!	!	!LO:TX:a:t==de	!	!	!
4E\	.	.	4b\	.	8gg#\L	.	4E\	-men	4B\	-men	4e\	-men	4g#\	-men	2.ryy	2.ryy
.	.	.	.	.	8ee\J	.	.	.	.	.	.	.	.	.	.	.
4r	.	.	8.f#/L	.	16a/LL	.	4r	.	4r	.	4r	.	4r	.	.	.
.	.	.	.	.	16f#/	.	.	.	.	.	.	.	.	.	.	.
.	.	.	.	.	16d#/	.	.	.	.	.	.	.	.	.	.	.
.	.	.	16d#/K	.	16B/JJ	.	.	.	.	.	.	.	.	.	.	.
!	!	!	!	!	!	!	!	!	!LO:LB:g=original	!	!	!	!	!	!	!
8r	.	.	8.B/	.	16a/LL	.	8r	.	8r	.	8r	.	8r	.	.	.
.	.	.	.	.	16f#/	.	.	.	.	.	.	.	.	.	.	.
!	!	!	!	!	!	!	!	!	!	!	!	!	!LO:TX:a:t=re	!	!	!
8BB/	.	.	.	.	16d#/	.	8BB/	a-	8B\	A-	8f#\	a-	8a\	a-	.	.
.	.	.	16d#/Jk	.	16B/JJ	.	.	.	.	.	.	.	.	.	.	.
!	!	!	!LO:LB:g=original	!	!	!	!	!	!	!	!	!	!	!	!	!
=87	=87	=87	=87	=87	=87	=87	=87	=87	=87	=87	=87	=87	=87	=87	=87	=87
!	!	!	!	!	!	!LO:DY:a:t=p&colon;	!	!	!	!	!	!	!LO:TX:a:t=tro	!	!	!
4E\	.	.	4B/	.	8g#/L	p	4E\	-men	4B\	-men	4e\	-men	4g#\	-men	2.ryy	2.ryy
.	.	.	.	.	8e/J	.	.	.	.	.	.	.	.	.	.	.
4r	.	.	4r	.	4r	.	4r	.	4r	.	4r	.	16g#\LL	a-	.	.
.	.	.	.	.	.	.	.	.	.	.	.	.	16e\	.	.	.
.	.	.	.	.	.	.	.	.	.	.	.	.	16f#\	.	.	.
.	.	.	.	.	.	.	.	.	.	.	.	.	16g#\JJ	.	.	.
4r	.	.	4r	.	4r	.	4r	.	4r	.	4r	.	16a\LL	.	.	.
.	.	.	.	.	.	.	.	.	.	.	.	.	16b\	.	.	.
.	.	.	.	.	.	.	.	.	.	.	.	.	16cc#\	.	.	.
.	.	.	.	.	.	.	.	.	.	.	.	.	16dd#\JJ	.	.	.
!	!	!	!	!	!	!	!	!	!	!	!LO:LB:g=original	!	!LO:LB:g=original	!	!	!
=88	=88	=88	=88	=88	=88	=88	=88	=88	=88	=88	=88	=88	=88	=88	=88	=88
!	!	!	!LO:TX:t=P:problem=mixed beam	!LO:DY:a:t=p&colon;	!	!	!	!	!	!	!	!	!	!	!	!
4r	.	.	8e/L	p	16ee\LL	.	4r	.	4r	.	4r	.	16ee\LL	.	2.ryy	2.ryy
.	.	.	.	.	16gg#\	.	.	.	.	.	.	.	16gg#\	.	.	.
.	.	.	8A/	.	16ff#\	.	.	.	.	.	.	.	16ff#\	.	.	.
.	.	.	.	.	16dd#\JJ	.	.	.	.	.	.	.	16dd#\JJ	.	.	.
4r	.	.	8G#/	.	16ee\LL	.	4r	.	4r	.	4r	.	16ee\LL	.	.	.
.	.	.	.	.	16cc#\	.	.	.	.	.	.	.	16cc#\	.	.	.
!	!	!	!	!LO:DY:a:t=f&colon;	!	!	!	!	!	!	!	!	!	!	!	!
.	.	.	8A/	f	16b\	.	.	.	.	.	.	.	16b\	.	.	.
.	.	.	.	.	16a\JJ	.	.	.	.	.	.	.	16a\JJ	.	.	.
!LO:TX:t=P:problem=mixed beam	!	!	!	!	!	!	!LO:TX:t=P:problem=mixed beam	!	!	!	!	!	!	!	!	!
*	*	*	*	*	*	*	*	*	*	*ij	*	*	*	*	*	*
8B\L	4	.	8ee\	.	8g#/L	.	8B\L	a-	4B\	A-	8e\L	a-	8g#\L	.	.	.
.	3	.	.	.	.	.	.	.	.	.	.	.	.	.	.	.
8BB/J	.	.	8dd#\J	.	8f#/J	.	8BB/J	.	.	.	8d#\J	.	8f#\J	.	.	.
=89	=89	=89	=89	=89	=89	=89	=89	=89	=89	=89	=89	=89	=89	=89	=89	=89
16E\LL	.	.	4ee\	.	4e/	.	16E\LL	.	4B\	-men	4e\	-men	4e/	-men	2.ryy	2.ryy
*	*	*	*	*	*	*	*	*	*	*Xij	*	*	*	*	*	*
16F#\	.	.	.	.	.	.	16F#\	.	.	.	.	.	.	.	.	.
16G#\	.	.	.	.	.	.	16G#\	.	.	.	.	.	.	.	.	.
16A\JJ	.	.	.	.	.	.	16A\JJ	.	.	.	.	.	.	.	.	.
16B\LL	.	.	4r	.	4r	.	16B\LL	.	4r	.	4r	.	4r	.	.	.
16c#\	.	.	.	.	.	.	16c#\	.	.	.	.	.	.	.	.	.
16d#\	.	.	.	.	.	.	16d#\	.	.	.	.	.	.	.	.	.
16e\JJ	.	.	.	.	.	.	16e\JJ	.	.	.	.	.	.	.	.	.
!LO:TX:t=P:problem=mixed beam	!	!	!	!	!	!LO:DY:t=f&colon;	!LO:TX:t=P:problem=mixed beam	!	!	!	!	!	!	!	!	!
8B\L	.	.	4f#/	.	4dd#\	f	8B\L	.	4B\	A-	4f#\	a-	4dd#\	a-	.	.
8BB/J	.	.	.	.	.	.	8BB/J	.	.	.	.	.	.	.	.	.
=90	=90	=90	=90	=90	=90	=90	=90	=90	=90	=90	=90	=90	=90	=90	=90	=90
4E\	.	.	4g#/	.	4ee/ 4b/ 4e/	.	4E\	-men	4B\	-men	4g#\	-men	4ee\	-men	2.ryy	2.ryy
4r	.	.	4r	.	4r	.	4r	.	4r	.	4r	.	4r	.	.	.
4r	.	.	4r	.	4r	.	4r	.	4r	.	4r	.	4r	.	.	.
==	==	==	==	==	==	==	==	==	==	==	==	==	==	==	==	==
*-	*-	*-	*-	*-	*-	*-	*-	*-	*-	*-	*-	*-	*-	*-	*-	*-
!!!system-decoration: [(s1,s2)][(s3,s4,s5,s6)][(s7,s8)][(s9)]
!!!RDF**kern: | = vertical stroke
!!!RDF**kern: > = above
!!!RDF**kern: < = below
!!!ENC: Andrzej Gręziak
!!!END: 2020-08-29
!!!ENC: Leszek Kubiak
!!!END: 2022-03-04
